assets/svg/2611.svg

<svg xmlns="http://www.w3.org/2000/svg" viewBox="0 0 64 64" enable-background="new 0 0 64 64"><path fill="#405866" d="m64 57.1c0 3.813-3.087 6.898-6.898 6.898h-50.21c-3.807 0-6.898-3.086-6.898-6.898v-50.2c0-3.809 3.091-6.898 6.898-6.898h50.2c3.812 0 6.898 3.089 6.898 6.898v50.2"/><path fill="#354a54" d="m.191 48.824v8.315c0 3.791 3.072 6.86 6.856 6.86h49.908c3.787 0 6.854-3.069 6.854-6.86v-49.903c-10.861 39.462-49.915 41.963-63.62 41.588"/><path fill="#f4f4f4" d="m54.04 14.186c-1.962-1.675-4.909-1.444-6.582.516l-20.1 23.515-10.815-9.03c-1.809-1.51-4.498-1.268-6.01.538-1.509 1.805-1.266 4.495.54 6l14.492 12.1c.942.786 2.119 1.087 3.248.949 1.193-.094 2.35-.641 3.189-1.622l22.554-26.387c1.676-1.958 1.442-4.905-.516-6.581"/></svg>

<?xml version="1.0" encoding="UTF-8" standalone="no"?>
<!-- Generator: Adobe Illustrator 16.0.0, SVG Export Plug-In . SVG Version: 6.00 Build 0)  -->

<svg
   xmlns:dc="http://purl.org/dc/elements/1.1/"
   xmlns:cc="http://creativecommons.org/ns#"
   xmlns:rdf="http://www.w3.org/1999/02/22-rdf-syntax-ns#"
   xmlns:svg="http://www.w3.org/2000/svg"
   xmlns="http://www.w3.org/2000/svg"
   xmlns:sodipodi="http://sodipodi.sourceforge.net/DTD/sodipodi-0.dtd"
   xmlns:inkscape="http://www.inkscape.org/namespaces/inkscape"
   version="1.1"
   id="Layer_1"
   x="0px"
   y="0px"
   width="64px"
   height="64px"
   viewBox="0 0 64 64"
   enable-background="new 0 0 64 64"
   xml:space="preserve"
   inkscape:version="0.48.5 r10040"
   sodipodi:docname="2611.svg"
   inkscape:export-filename="D:\TESTINGEMOJI\SVGTEST\2611.png"
   inkscape:export-xdpi="90"
   inkscape:export-ydpi="90"><metadata
   id="metadata3911"><rdf:RDF><cc:Work
       rdf:about=""><dc:format>image/svg+xml</dc:format><dc:type
         rdf:resource="http://purl.org/dc/dcmitype/StillImage" /><dc:title></dc:title></cc:Work></rdf:RDF></metadata><defs
   id="defs3909" /><sodipodi:namedview
   pagecolor="#ffffff"
   bordercolor="#666666"
   borderopacity="1"
   objecttolerance="10"
   gridtolerance="10"
   guidetolerance="10"
   inkscape:pageopacity="0"
   inkscape:pageshadow="2"
   inkscape:window-width="640"
   inkscape:window-height="480"
   id="namedview3907"
   showgrid="false"
   inkscape:zoom="3.6875"
   inkscape:cx="32"
   inkscape:cy="32"
   inkscape:window-x="769"
   inkscape:window-y="305"
   inkscape:window-maximized="0"
   inkscape:current-layer="Layer_1" />
<g
   id="g3893">
	<g
   id="g3895">
		<path
   fill="#405866"
   d="M64.001,57.102c0,3.813-3.087,6.898-6.898,6.898H6.898C3.091,64,0,60.914,0,57.102V6.898    C0,3.089,3.091,0,6.898,0h50.205c3.812,0,6.898,3.089,6.898,6.898V57.102z"
   id="path3897" />
	</g>
	<g
   id="g3899">
		<path
   fill="#354A54"
   d="M0.191,48.824v8.315c0,3.791,3.072,6.86,6.856,6.86h49.908c3.787,0,6.854-3.069,6.854-6.86V7.236    C52.948,46.698,13.894,49.199,0.191,48.824z"
   id="path3901" />
	</g>
	<g
   id="g3903">
		<path
   fill="#F4F4F4"
   d="M54.043,14.186c-1.962-1.675-4.909-1.444-6.582,0.516L27.358,38.217l-10.815-9.034    c-1.809-1.51-4.498-1.268-6.007,0.538c-1.509,1.805-1.266,4.495,0.54,6.002l14.492,12.104c0.942,0.786,2.119,1.087,3.248,0.949    c1.193-0.094,2.35-0.641,3.189-1.622l22.554-26.387C56.235,18.809,56.001,15.862,54.043,14.186z"
   id="path3905" />
	</g>
</g>
</svg>
